X:10
T:Sighs are fragile deep breaths are antifragile
M:4/4
L:1/8
Q:1/4=150
K:F#m
|: F#2 Ac f2 cA | C#2 EG c2 GE | D2 FA d2 AF | B,2 DF B2 FD :|
| f c A F C# A, F, C# | e c G E C G, E, C | d A F D B, F, D, B,, | c A F D B, F, D, B,, |
